X: 35086
T: Rolling In The Ryegrass
R: reel
M: 4/4
K: Dmajor
[A2D2][ A D2]F DFAF|GFEF GBdB|[A2D2] [A D2]F DFAF|GBAF EFDE|
F2FE DFAF|[G2G,2] BG dGBG|ABAF DFAA|(3Bcd AF EF D2|
|:(3ABc de [f3d3]e|g2 g>e fedB|ABde fedf|afdf e2dB:|

